kora/panel/16/android-messages-desktop-tray.svg

<svg xmlns="http://www.w3.org/2000/svg" width="16" height="16" version="1.1">
 <defs>
  <style id="current-color-scheme" type="text/css">
   .ColorScheme-Text { color:#dfdfdf; } .ColorScheme-Highlight { color:#4285f4; }
  </style>
 </defs>
 <path style="fill:currentColor" class="ColorScheme-Text" d="M 0.8359375 2 C 0.1939419 1.9992087 -0.20736961 2.6018921 0.11328125 3.0839844 L 1.6035156 5.9199219 L 2.0019531 6.5175781 L 2.0019531 10.410156 C 2.0019531 11.844039 3.1568292 13 4.5917969 13 L 13.410156 13 C 14.845124 13 16 11.844039 16 10.410156 L 16 4.5898438 C 16 3.1559615 14.845124 2 13.410156 2 L 8.390625 2 L 4.5917969 2 L 4.2128906 2 L 0.8359375 2 z M 5.3300781 4 L 12.603516 4 C 12.804971 4 12.966797 4.2229998 12.966797 4.5 C 12.966797 4.7770003 12.804971 5 12.603516 5 L 5.3300781 5 C 5.1286235 5 4.9667969 4.7770003 4.9667969 4.5 C 4.9667969 4.2229998 5.1286235 4 5.3300781 4 z M 5.3300781 7 L 12.603516 7 C 12.804971 7 12.966797 7.2229998 12.966797 7.5 C 12.966797 7.7770003 12.804971 8 12.603516 8 L 5.3300781 8 C 5.1286235 8 4.9667969 7.7770003 4.9667969 7.5 C 4.9667969 7.2229998 5.1286235 7 5.3300781 7 z M 5.4296875 10 L 10.572266 10 C 10.809694 10 11 10.223 11 10.5 C 11 10.777 10.809694 11 10.572266 11 L 5.4296875 11 C 5.1922589 11 5 10.777 5 10.5 C 5 10.223 5.1922589 10 5.4296875 10 z"/>
</svg>

<svg xmlns="http://www.w3.org/2000/svg" width="16" height="16" viewBox="0 0 16 16">
 <defs>
  <style id="current-color-scheme" type="text/css">
   .ColorScheme-Text { color:#dfdfdf; } .ColorScheme-Highlight { color:#4285f4; } .ColorScheme-NeutralText { color:#ff9800; } .ColorScheme-PositiveText { color:#4caf50; } .ColorScheme-NegativeText { color:#f44336; }
  </style>
 </defs>
 <path style="fill:currentColor;opacity:0.3" class="ColorScheme-Text" d="m.836 2c-.642-.001-1.043.602-.723 1.084 0 0 1.889 1.332 1.889 3.434v3.892c0 1.434 1.155 2.59 2.59 2.59h8.818c1.435 0 2.59-1.156 2.59-2.59v-5.82c0-1.434-1.155-2.59-2.59-2.59z"/>
  <path style="fill:currentColor" class="ColorScheme-Text" d="m5.43 10h5.142c.238 0 .428.223.428.5s-.19.5-.428.5h-5.142c-.238 0-.43-.223-.43-.5s.192-.5.43-.5zm-.1-3h7.274c.201 0 .363.223.363.5s-.162.5-.363.5h-7.274c-.201 0-.363-.223-.363-.5s.162-.5.363-.5zm0-3h7.274c.201 0 .363.223.363.5s-.162.5-.363.5h-7.274c-.201 0-.363-.223-.363-.5s.162-.5.363-.5z"/>
</svg>
